_editor/libs/builder/icons/search.svg

<svg height="32" viewBox="0 0 32 32" width="32" xmlns="http://www.w3.org/2000/svg"><path d="m19.4271164 20.4271164c-1.3898669.9903639-3.0904642 1.5728836-4.9271164 1.5728836-4.69442061 0-8.5-3.8055794-8.5-8.5 0-4.69442061 3.80557939-8.5 8.5-8.5 4.6944206 0 8.5 3.80557939 8.5 8.5 0 2.3472103-.9513948 4.4722103-2.4895923 6.0104077l5.9973659 5.9973659c.2750544.2750544.2683688.716084-.0077736.9922264-.2780676.2780676-.7203773.2796227-.9922264.0077736zm-4.9271164.5728836c4.1421358 0 7.5-3.3578642 7.5-7.5 0-4.14213583-3.3578642-7.5-7.5-7.5s-7.5 3.35786417-7.5 7.5c0 4.1421358 3.3578642 7.5 7.5 7.5z" fill-rule="evenodd"/></svg>

<?xml version="1.0" encoding="UTF-8" standalone="no"?>
<svg
   xmlns:dc="http://purl.org/dc/elements/1.1/"
   xmlns:cc="http://creativecommons.org/ns#"
   xmlns:rdf="http://www.w3.org/1999/02/22-rdf-syntax-ns#"
   xmlns:svg="http://www.w3.org/2000/svg"
   xmlns="http://www.w3.org/2000/svg"
   xmlns:sodipodi="http://sodipodi.sourceforge.net/DTD/sodipodi-0.dtd"
   xmlns:inkscape="http://www.inkscape.org/namespaces/inkscape"
   height="32px"
   version="1.1"
   viewBox="0 0 32 32"
   width="32px"
   id="svg2"
   inkscape:version="0.91 r13725"
   sodipodi:docname="search.svg">
  <metadata
     id="metadata15">
    <rdf:RDF>
      <cc:Work
         rdf:about="">
        <dc:format>image/svg+xml</dc:format>
        <dc:type
           rdf:resource="http://purl.org/dc/dcmitype/StillImage" />
        <dc:title></dc:title>
      </cc:Work>
    </rdf:RDF>
  </metadata>
  <sodipodi:namedview
     pagecolor="#ffffff"
     bordercolor="#666666"
     borderopacity="1"
     objecttolerance="10"
     gridtolerance="10"
     guidetolerance="10"
     inkscape:pageopacity="0"
     inkscape:pageshadow="2"
     inkscape:window-width="708"
     inkscape:window-height="480"
     id="namedview13"
     showgrid="false"
     inkscape:zoom="10.429825"
     inkscape:cx="16"
     inkscape:cy="16"
     inkscape:window-x="1217"
     inkscape:window-y="547"
     inkscape:window-maximized="0"
     inkscape:current-layer="Page-1" />
  <desc
     id="desc6" />
  <defs
     id="defs8" />
  <g
     fill="none"
     fill-rule="evenodd"
     id="Page-1"
     stroke="none"
     stroke-width="1">
    <g
       fill="#157EFB"
       id="icon-111-search"
       style="fill:#000000">
      <path
         d="M19.4271164,20.4271164 C18.0372495,21.4174803 16.3366522,22 14.5,22 C9.80557939,22 6,18.1944206 6,13.5 C6,8.80557939 9.80557939,5 14.5,5 C19.1944206,5 23,8.80557939 23,13.5 C23,15.8472103 22.0486052,17.9722103 20.5104077,19.5104077 L26.5077736,25.5077736 C26.782828,25.782828 26.7761424,26.2238576 26.5,26.5 C26.2219324,26.7780676 25.7796227,26.7796227 25.5077736,26.5077736 L19.4271164,20.4271164 L19.4271164,20.4271164 Z M14.5,21 C18.6421358,21 22,17.6421358 22,13.5 C22,9.35786417 18.6421358,6 14.5,6 C10.3578642,6 7,9.35786417 7,13.5 C7,17.6421358 10.3578642,21 14.5,21 L14.5,21 Z"
         id="search"
         style="fill:#000000" />
    </g>
  </g>
</svg>
